svg/u1f354.svg

<svg viewBox="0 0 128 128" xmlns="http://www.w3.org/2000/svg">
  <path d="M13.91,89.87c0,0-0.96,6.28,1.27,11.82c1.86,4.64,6.68,10.75,15.9,15.41s19.81,6.3,35.44,6.62 c15.63,0.33,31.69-3.32,39.4-10.09c7.72-6.78,10.42-12.48,10.2-18.67c-0.22-6.19-3.51-8.54-3.51-8.54L13.91,89.87z" fill="#FCB745"/>
  <path d="M18.38,83.56l-4.56,4.56c0,0-1.24,6.1,5.64,12.7c5.21,4.99,14.43,13.66,45.05,13.89 c28.66,0.22,37.67-6.08,43.2-10.53c5.54-4.45,7.62-12.18,7.07-14.35c-0.54-2.17-2.24-3.42-2.24-3.42L18.38,83.56z" fill="#E78B20"/>
  <path d="M20.33,90.07c0,0-1.29,2.19-0.87,3.58c0.33,1.09,0.98,5.54,13.89,11.18 c6.83,2.99,18.45,5.43,33.54,4.99c17.9-0.52,32.24-4.12,39.18-10.64c7.11-6.67,5.75-10.64,5.75-10.64L20.33,90.07z" fill="#FFD290"/>
  <path d="M16.64,74.87c0,0-4.28,4.36-4.99,6.3c-0.67,1.83-0.58,4.49,0.6,6.64c1.59,2.88,3.57,3.18,6.02,4.65 c2.65,1.58,6.84,6.51,17.15,8.68c10.31,2.17,23.88,3.15,31.15,3.15s16.93-0.11,25.94-3.15s19.32-9.01,21.71-14.33 c2.39-5.32,0.11-8.47,0.11-8.47l-5.21-3.47H16.64z" fill="#6D544D"/>
  <path d="M14.14,69.34c0,0-3.32-0.15-4.12,4.88c-0.58,3.66,2.06,5.97,2.06,5.97s-1.4,2.01,0.22,4.56 c1.52,2.39,3.15,2.93,6.51,3.47c2.42,0.39,3.69-0.33,6.84,1.41c3.95,2.18,5.64,6.08,11.07,7.27s11.51,0.11,11.72-0.76 s-7.6-4.12-21.71-12.05c-4.76-2.67-9.12-6.3-10.31-8.14C15.23,74.11,14.14,69.34,14.14,69.34z" fill="#9B7169"/>
  <path d="M82.42,95.82c0,1.41,4.67,0.76,6.84-0.43s5.64-4.23,8.79-5.54c3.15-1.3,4.34-0.11,8.9-2.28 c4.56-2.17,7.06-7.27,7.06-7.27s2.22-2.74,2.4-4.66c0.28-2.93-0.01-4.35-2.07-5c-2.06-0.65-6.55,6.1-7.2,6.86 c-0.65,0.76-10.27,7.79-14.07,10.5S82.42,95.06,82.42,95.82z" fill="#9B7169"/>
  <path d="M18.38,65.65c0,0-5.43,0.65-6.19,2.93c-0.76,2.28,1.63,5.64,7.92,9.88 c5.16,3.47,22.84,11.82,29.85,16.17c8.03,4.99,14.83,11.96,15.96,12.05c1.41,0.11,11.2-10.29,24.75-19.43 c12.88-8.7,21.71-10.85,24.86-17.26c1.69-3.44-2.39-5.43-2.39-5.43L60.82,44.7L18.38,65.65z" fill="#FFE869"/>
  <path d="M66.57,100.82c1.62-0.18,10.09-8.36,20.08-14.65s24.75-13.03,26.92-16.82s-3.04-6.3-3.04-6.3 l-60.79-10.2l-35.6,14c0,0-1.95,0.65-0.65,2.28s3.36,4.34,7.92,7.16c5.54,3.43,19.76,9.12,28.76,14 C59.19,95.17,64.62,101.03,66.57,100.82z" fill="#FFBE01"/>
  <path d="M19.04,68.47l1.89,5.06c0,0,13.6,13.71,40.65,14.25c26.92,0.54,42.01-12.27,42.01-12.27l3.44-8.64 L19.04,68.47z" fill="#F4482B"/>
  <path d="M54.5,76.83l-2.13,3.41c0,0,4.55,2.73,5.86,3.2c1.88,0.67,3.73,0.43,6.5-0.43 C67.5,82.16,79,77.58,79,77.58s9.51,0.14,15.48,0.25c5.29,0.1,10.59-1.8,13.36-5s7.07-10.06,7.07-10.06s2.24-0.53,3.73-2.24 s1.6-3.2,1.6-3.2s-0.43-2.88-2.02-3.62c-1.6-0.75-72.86-5.11-72.86-5.11l-28.55,2.13L12,60.64l15.87,13.53l22.37,1.28L54.5,76.83z" fill="#A6B732"/>
  <path d="M13.49,51.91c-1.61-0.73-3.3-0.64-4.05,1.49c-0.75,2.13-0.52,3.07-0.52,3.07s-2.19,0.46-2.46,3.21 c-0.32,3.3,3.3,4.47,3.3,4.47s0.17,1.28,1.6,2.56c1.63,1.46,3.26,1.31,3.26,1.31s4.3,4.23,7.18,5.93s7.03,2.88,11.19,2.77 s5.54-2.02,8.63-0.96S52.9,81.13,56.2,81.2c5.22,0.11,16.51-7.99,19.07-7.88c2.56,0.11,14.17,1.92,20.35,1.92s8.42-1.81,9.8-3.62 c1.38-1.81,3.73-6.39,2.98-6.5c-0.75-0.11-5.65,3.94-9.16,3.62c-3.52-0.32-6.6-2.34-10.97-2.34c-4.37,0-25.67,2.77-27.06,3.41 s-7.35,5.22-8.52,5.01c-1.17-0.21-5.22-3.62-6.6-4.37s-15.91-1.23-18-0.85c-1.5,0.27-3.62,0.64-3.62,0.64s0.21-3.3-1.6-5.22 c-1.81-1.92-7.78-5.22-7.78-5.22S15.83,52.97,13.49,51.91z" fill="#C2DD1F"/>
  <path d="M107.97,57.66c0,0,6.5,0,8.31-0.11c1.81-0.11,3.94-0.21,3.94-0.21s-0.62-2.95-1.56-4.52 c-1.92-3.22-6.54-4.11-6.54-4.11L107.97,57.66z" fill="#C2DD1F"/>
  <path d="M12,47.97l-0.71,3.14c0,0,9.83,17.41,54.01,18.07c25.86,0.39,40.72-7.46,47.28-13.88 c3.93-3.85,4.06-7.59,4.06-7.59L12,47.97z" fill="#DE8010"/>
  <radialGradient id="SVGID_1_" cx="63.4666" cy="15.5248" gradientTransform="matrix(0.0112 0.9999 -1.7423 0.0196 89.8031 -48.2417)" gradientUnits="userSpaceOnUse" r="44.0424">
    <stop offset="0.517" stop-color="#DF8016"/>
    <stop offset="0.6426" stop-color="#E58C21"/>
    <stop offset="1" stop-color="#F5AC3C"/>
  </radialGradient>
  <path d="M9.76,39.31c-0.56,8.7,1.56,11.82,1.56,11.82s14.62,13.24,51.96,13.85 c38.27,0.62,50.71-12.07,52.89-15.77c1.39-2.35,2.5-6.96,1.62-13.68c-1.46-11.1-14.24-32.16-54.69-32S10.58,26.68,9.76,39.31z" fill="url(#SVGID_1_)"/>
  <path d="M48.19,14.36c0.31,1.7-7.36,7.36-8.47,1.93C38.68,11.18,47.9,12.79,48.19,14.36z" fill="#FDEAC8"/>
  <path d="M50.93,25.01c0.4,1.05,8.26,2.56,7.42-1.87C57.47,18.53,50.11,22.85,50.93,25.01z" fill="#FDEAC8"/>
  <path d="M57.82,12.85c0.2,1.51,9.36,3.27,9.17-0.99C66.76,6.6,57.59,11.1,57.82,12.85z" fill="#FDEAC8"/>
  <path d="M42.71,28.51c0.05,0.34-2.2,2.11-4.5,2.8c-2.02,0.61-4.09,0.35-4.32-2.16 c-0.22-2.42,1.5-3.3,3.56-3.09C39.82,26.29,42.61,27.86,42.71,28.51z" fill="#FDEAC8"/>
  <path d="M61.74,35.58c-0.38-1.59-8.99-3.8-8.41,1.23C53.92,41.82,62.15,37.27,61.74,35.58z" fill="#FDEAC8"/>
  <path d="M69.8,24.13c-0.42-0.49-2.39-0.4-4.79,0.23c-1.73,0.46-3.01,2.41-1.81,4.26 c1.4,2.16,3.75,1.25,5.25-0.58C69.67,26.56,70.27,24.68,69.8,24.13z" fill="#FDEAC8"/>
  <path d="M79.02,12.44c-0.27-0.29-2.24-0.49-3.85,0.29c-1.62,0.78-3.02,2.64-1.52,4.38 c1.52,1.75,3.78,0.74,4.85-1.11C79.35,14.51,79.43,12.88,79.02,12.44z" fill="#FDEAC8"/>
  <path d="M85.2,27.66c-0.26-1.63-7.5-4.53-7.45-0.09C77.8,32.12,85.43,29.13,85.2,27.66z" fill="#FDEAC8"/>
  <path d="M95.21,19.62c-0.24-1.25-9.45-2.26-7.88,2.39C88.96,26.86,95.5,21.14,95.21,19.62z" fill="#FDEAC8"/>
  <path d="M82.53,35.98c0.06-1.4-6.95-4.61-7.47-0.41S82.45,37.8,82.53,35.98z" fill="#FDEAC8"/>
</svg>

<svg viewBox="0 0 128 128" xmlns="http://www.w3.org/2000/svg">
  <defs>
    <radialGradient id="SVGID_1_" cx="16.236367" cy="-36.321655" gradientTransform="matrix(0.0112 0.9999 -1.7423 0.0196 0 0)" gradientUnits="userSpaceOnUse" r="44.0424">
      <stop offset="0.517" stop-color="#DF8016"/>
      <stop offset="0.6426" stop-color="#E58C21"/>
      <stop offset="1" stop-color="#F5AC3C"/>
    </radialGradient>
  </defs>
  <path d="M13.91,89.87 C13.91,89.87 12.95,96.15 15.18,101.69 C17.04,106.33 21.86,112.44 31.08,117.1 C40.3,121.76 50.89,123.4 66.52,123.72 C82.15,124.05 98.21,120.4 105.92,113.63 C113.64,106.85 116.34,101.15 116.12,94.96 C115.9,88.77 112.61,86.42 112.61,86.42 L13.91,89.87 Z" fill="#FCB745"/>
  <path d="M18.38,83.56 L13.82,88.12 C13.82,88.12 12.58,94.22 19.46,100.82 C24.67,105.81 33.89,114.48 64.51,114.71 C93.17,114.93 102.18,108.63 107.71,104.18 C113.25,99.73 115.33,92 114.78,89.83 C114.24,87.66 112.54,86.41 112.54,86.41 L18.38,83.56 Z" fill="#E78B20"/>
  <path d="M20.33,90.07 C20.33,90.07 19.04,92.26 19.46,93.65 C19.79,94.74 20.44,99.19 33.35,104.83 C40.18,107.82 51.8,110.26 66.89,109.82 C84.79,109.3 99.13,105.7 106.07,99.18 C113.18,92.51 111.82,88.54 111.82,88.54 L20.33,90.07 Z" fill="#FFD290"/>
  <path d="M16.64,74.87 C16.64,74.87 12.36,79.23 11.65,81.17 C10.98,83 11.07,85.66 12.25,87.81 C13.84,90.69 15.82,90.99 18.27,92.46 C20.92,94.04 25.11,98.97 35.42,101.14 C45.73,103.31 59.3,104.29 66.57,104.29 C73.84,104.29 83.5,104.18 92.51,101.14 C101.52,98.1 111.83,92.13 114.22,86.81 C116.61,81.49 114.33,78.34 114.33,78.34 L109.12,74.87 L16.64,74.87 Z" fill="#6D544D"/>
  <path d="M14.14,69.34 C14.14,69.34 10.82,69.19 10.02,74.22 C9.44,77.88 12.08,80.19 12.08,80.19 C12.08,80.19 10.68,82.2 12.3,84.75 C13.82,87.14 15.45,87.68 18.81,88.22 C21.23,88.61 22.5,87.89 25.65,89.63 C29.6,91.81 31.29,95.71 36.72,96.9 C42.15,98.09 48.23,97.01 48.44,96.14 C48.65,95.27 40.84,92.02 26.73,84.09 C21.97,81.42 17.61,77.79 16.42,75.95 C15.23,74.11 14.14,69.34 14.14,69.34 Z" fill="#9B7169"/>
  <path d="M82.42,95.82 C82.42,97.23 87.09,96.58 89.26,95.39 C91.43,94.2 94.9,91.16 98.05,89.85 C101.2,88.55 102.39,89.74 106.95,87.57 C111.51,85.4 114.01,80.3 114.01,80.3 C114.01,80.3 116.23,77.56 116.41,75.64 C116.69,72.71 116.4,71.29 114.34,70.64 C112.28,69.99 107.79,76.74 107.14,77.5 C106.49,78.26 96.87,85.29 93.07,88 C89.27,90.71 82.42,95.06 82.42,95.82 Z" fill="#9B7169"/>
  <path d="M18.38,65.65 C18.38,65.65 12.95,66.3 12.19,68.58 C11.43,70.86 13.82,74.22 20.11,78.46 C25.27,81.93 42.95,90.28 49.96,94.63 C57.99,99.62 64.79,106.59 65.92,106.68 C67.33,106.79 77.12,96.39 90.67,87.25 C103.55,78.55 112.38,76.4 115.53,69.99 C117.22,66.55 113.14,64.56 113.14,64.56 L60.82,44.7 L18.38,65.65 Z" fill="#FFE869"/>
  <path d="M66.57,100.82 C68.19,100.64 76.66,92.46 86.65,86.17 C96.64,79.88 111.4,73.14 113.57,69.35 C115.74,65.56 110.53,63.05 110.53,63.05 L49.74,52.85 L14.14,66.85 C14.14,66.85 12.19,67.5 13.49,69.13 C14.79,70.76 16.85,73.47 21.41,76.29 C26.95,79.72 41.17,85.41 50.17,90.29 C59.19,95.17 64.62,101.03 66.57,100.82 Z" fill="#FFBE01"/>
  <path d="M19.04,68.47 L20.93,73.53 C20.93,73.53 34.53,87.24 61.58,87.78 C88.5,88.32 103.59,75.51 103.59,75.51 L107.03,66.87 L19.04,68.47 Z" fill="#F4482B"/>
  <path d="M54.5,76.83 L52.37,80.24 C52.37,80.24 56.92,82.97 58.23,83.44 C60.11,84.11 61.96,83.87 64.73,83.01 C67.5,82.16 79,77.58 79,77.58 C79,77.58 88.51,77.72 94.48,77.83 C99.77,77.93 105.07,76.03 107.84,72.83 C110.61,69.63 114.91,62.77 114.91,62.77 C114.91,62.77 117.15,62.24 118.64,60.53 C120.13,58.82 120.24,57.33 120.24,57.33 C120.24,57.33 119.81,54.45 118.22,53.71 C116.62,52.96 45.36,48.6 45.36,48.6 L16.81,50.73 L12,60.64 L27.87,74.17 L50.24,75.45 L54.5,76.83 Z" fill="#A6B732"/>
  <path d="M13.49,51.91 C11.88,51.18 10.19,51.27 9.44,53.4 C8.69,55.53 8.92,56.47 8.92,56.47 C8.92,56.47 6.73,56.93 6.46,59.68 C6.14,62.98 9.76,64.15 9.76,64.15 C9.76,64.15 9.93,65.43 11.36,66.71 C12.99,68.17 14.62,68.02 14.62,68.02 C14.62,68.02 18.92,72.25 21.8,73.95 C24.68,75.65 28.83,76.83 32.99,76.72 C37.15,76.61 38.53,74.7 41.62,75.76 C44.71,76.82 52.9,81.13 56.2,81.2 C61.42,81.31 72.71,73.21 75.27,73.32 C77.83,73.43 89.44,75.24 95.62,75.24 C101.8,75.24 104.04,73.43 105.42,71.62 C106.8,69.81 109.15,65.23 108.4,65.12 C107.65,65.01 102.75,69.06 99.24,68.74 C95.72,68.42 92.64,66.4 88.27,66.4 C83.9,66.4 62.6,69.17 61.21,69.81 C59.82,70.45 53.86,75.03 52.69,74.82 C51.52,74.61 47.47,71.2 46.09,70.45 C44.71,69.7 30.18,69.22 28.09,69.6 C26.59,69.87 24.47,70.24 24.47,70.24 C24.47,70.24 24.68,66.94 22.87,65.02 C21.06,63.1 15.09,59.8 15.09,59.8 C15.09,59.8 15.83,52.97 13.49,51.91 Z" fill="#C2DD1F"/>
  <path d="M107.97,57.66 C107.97,57.66 114.47,57.66 116.28,57.55 C118.09,57.44 120.22,57.34 120.22,57.34 C120.22,57.34 119.6,54.39 118.66,52.82 C116.74,49.6 112.12,48.71 112.12,48.71 L107.97,57.66 Z" fill="#C2DD1F"/>
  <path d="M12,47.97 L11.29,51.11 C11.29,51.11 21.12,68.52 65.3,69.18 C91.16,69.57 106.02,61.72 112.58,55.3 C116.51,51.45 116.64,47.71 116.64,47.71 L12,47.97 Z" fill="#DE8010"/>
  <path d="M9.76,39.31 C9.2,48.01 11.32,51.13 11.32,51.13 C11.32,51.13 25.94,64.37 63.28,64.98 C101.55,65.6 113.99,52.91 116.17,49.21 C117.56,46.86 118.67,42.25 117.79,35.53 C116.33,24.43 103.55,3.37 63.1,3.53 C22.65,3.69 10.58,26.68 9.76,39.31 Z" fill="url(#SVGID_1_)"/>
  <path d="M48.19,14.36 C48.5,16.06 40.83,21.72 39.72,16.29 C38.68,11.18 47.9,12.79 48.19,14.36 Z" fill="#FDEAC8"/>
  <path d="M50.93,25.01 C51.33,26.06 59.19,27.57 58.35,23.14 C57.47,18.53 50.11,22.85 50.93,25.01 Z" fill="#FDEAC8"/>
  <path d="M57.82,12.85 C58.02,14.36 67.18,16.12 66.99,11.86 C66.76,6.6 57.59,11.1 57.82,12.85 Z" fill="#FDEAC8"/>
  <path d="M42.71,28.51 C42.76,28.85 40.51,30.62 38.21,31.31 C36.19,31.92 34.12,31.66 33.89,29.15 C33.67,26.73 35.39,25.85 37.45,26.06 C39.82,26.29 42.61,27.86 42.71,28.51 Z" fill="#FDEAC8"/>
  <path d="M61.74,35.58 C61.36,33.99 52.75,31.78 53.33,36.81 C53.92,41.82 62.15,37.27 61.74,35.58 Z" fill="#FDEAC8"/>
  <path d="M69.8,24.13 C69.38,23.64 67.41,23.73 65.01,24.36 C63.28,24.82 62,26.77 63.2,28.62 C64.6,30.78 66.95,29.87 68.45,28.04 C69.67,26.56 70.27,24.68 69.8,24.13 Z" fill="#FDEAC8"/>
  <path d="M79.02,12.44 C78.75,12.15 76.78,11.95 75.17,12.73 C73.55,13.51 72.15,15.37 73.65,17.11 C75.17,18.86 77.43,17.85 78.5,16 C79.35,14.51 79.43,12.88 79.02,12.44 Z" fill="#FDEAC8"/>
  <path d="M85.2,27.66 C84.94,26.03 77.7,23.13 77.75,27.57 C77.8,32.12 85.43,29.13 85.2,27.66 Z" fill="#FDEAC8"/>
  <path d="M95.21,19.62 C94.97,18.37 85.76,17.36 87.33,22.01 C88.96,26.86 95.5,21.14 95.21,19.62 Z" fill="#FDEAC8"/>
  <path d="M82.53,35.98 C82.59,34.58 75.58,31.37 75.06,35.57 C74.54,39.77 82.45,37.8 82.53,35.98 Z" fill="#FDEAC8"/>
</svg>
